icon/ir/puzzle.svg

<svg stroke-width="1.5" viewBox="0 0 24 24" fill="none" xmlns="http://www.w3.org/2000/svg" height="1em" width="1em">
  <path d="M4 14V18.4C4 18.7314 4.26863 19 4.6 19H10" stroke="currentColor" stroke-linecap="round" stroke-linejoin="round"/>
  <path d="M19 14V18.4C19 18.7314 18.7314 19 18.4 19H14" stroke="currentColor" stroke-linecap="round" stroke-linejoin="round"/>
  <path d="M14 5H18.4C18.7314 5 19 5.26863 19 5.6V10" stroke="currentColor" stroke-linecap="round" stroke-linejoin="round"/>
  <path d="M4 10V5.6C4 5.26863 4.26863 5 4.6 5H10" stroke="currentColor" stroke-linecap="round" stroke-linejoin="round"/>
  <path d="M14 19V20C14 21.1046 13.1046 22 12 22C10.8954 22 10 21.1046 10 20V19" stroke="currentColor" stroke-linecap="round" stroke-linejoin="round"/>
  <path d="M4 10H5C6.10457 10 7 10.8954 7 12C7 13.1046 6.10457 14 5 14H4" stroke="currentColor" stroke-linecap="round" stroke-linejoin="round"/>
  <path d="M19 10H20C21.1046 10 22 10.8954 22 12C22 13.1046 21.1046 14 20 14H19" stroke="currentColor" stroke-linecap="round" stroke-linejoin="round"/>
  <path d="M14 5V4C14 2.89543 13.1046 2 12 2C10.8954 2 10 2.89543 10 4V5" stroke="currentColor" stroke-linecap="round" stroke-linejoin="round"/>
</svg>

<svg width="24" height="24" stroke-width="1.5" fill="none" xmlns="http://www.w3.org/2000/svg"><path d="M4 14v4.4a.6.6 0 0 0 .6.6H10M19 14v4.4a.6.6 0 0 1-.6.6H14M14 5h4.4a.6.6 0 0 1 .6.6V10M4 10V5.6a.6.6 0 0 1 .6-.6H10M14 19v1a2 2 0 1 1-4 0v-1M4 10h1a2 2 0 1 1 0 4H4M19 10h1a2 2 0 1 1 0 4h-1M14 5V4a2 2 0 1 0-4 0v1" stroke="currentColor" stroke-linecap="round" stroke-linejoin="round"/></svg>
